source/assets/logos/emf.svg

<svg xmlns="http://www.w3.org/2000/svg" xml:space="preserve" style="fill-rule:evenodd;clip-rule:evenodd;stroke-linejoin:round;stroke-miterlimit:2" viewBox="0 0 250 252">
  <g transform="matrix(1.17299 0 0 1.18485 -76.42 -75.54)">
    <path d="M65.15 63.754h212.525v212.525H65.15z" style="fill:none"/>
    <clipPath id="a">
      <path d="M65.15 63.754h212.525v212.525H65.15z"/>
    </clipPath>
    <g clip-path="url(#a)">
      <path d="m82.07 191.78 8.18 5.38c3.28-4.33 5.97-6.55 8.98-6.41 3.66 0 9.61 6.29 16.52 6.29s11.69-5.15 16.14-13.68l-8.07-5.38c-3.51 5.15-6.2 6.55-9 6.55-4.68 0-11.11-6.19-17.54-6.19-5.97 0-10.88 4.09-15.2 13.45l-.01-.01Z" style="fill-rule:nonzero" transform="matrix(.85252 0 0 .84399 80.205 11.77)"/>
      <path d="M149.12 88.23v-8.81l-13.45 7.99V61.87h-7.57v30.04l-17.33 10.3V61.87h-7.57v20.21L67.71 61.87h-2.87v7.08L103.2 90.8v29.54l-13.14-7.48V94h-.05l.05-.09-25.22-14.36v8.71l17.65 10.05v10.23L64.84 98.49v8.71l38.36 21.85v17.31c-21.47 1.92-38.36 20-38.36 41.96s15.42 38.43 35.52 41.62c.27.77.49 1.55.69 1.99.46 1.01-.46 16.36-.71 18.64-.25 2.28 2.72 8.42 3.33 9.49.61 1.06-.77 5.07-1.3 5.6-.53.53-.51 2.99-.79 4.07-.63 2.42-6.08 9.18-8.12 9.96-.33.13-2.97.07-4.15.76-1.19.69-10.85.34-11.8-.2-.95-.54-7.19-2.18-9.83-2.63-.62-.11-1.64-.89-2.83-2.01v5c4.15 1.48 6.99 3.81 8.41 4.5 1.43.7 2.53 2.08 3.04 4.05.43 1.67-7.79 5.59-11.44 7.86v8.78c3.49-3.65 10.21-8.91 11.14-9.45 1.24-.72 12.11-6.99 14.18-6.99 2.07 0 .62 6.63.35 8.2-.26 1.57 1.66 11.6.61 12.21-.56.32-.77 2.7-.84 5.01h6.53c.23-1.23.53-2.36 1.04-2.48.58-.13 1.73 1.15 2.71 2.48h4.86c-.8-1.01-1.58-1.9-1.76-2.07-.39-.39-3.17-2.58-3.63-4.36-.46-1.77-3.19-4.61-3.72-5.14-.53-.53-.16-10.41.13-11.22.76-2.13 3.23-5.17 3.23-6.24 0-1.07 4.47-4.35 5.88-4.35 1.41 0 3.87 6.77 6.25 8.58 1.9 1.44 5.34 7.87 6.05 8.58 2.15 2.15 2.51 10.51 2.51 12.74 0 .82-.14 2.11-.32 3.47h4.13c.3-1.53.52-2.9.62-3.34.25-1.11-.56-7.04 0-7.6.56-.56 5.67.2 7.85.2 2.18 0 6.59-2.16 7.24-1.92 1.66.61 1.72 2.68 4.41 4.76.86.66 2.69 1.54 4.82 2.42v-2.24c-2.93-1.97-4.85-7.17-4.57-7.93.1-.27 2.04-1.8 4.57-3.81v-4.5c-3.54 2.5-9.85 5.08-11.41 5.98-1.93 1.11-10.42-1.12-12.16-2.13-1.74-1-9.83-11.29-11.09-14.08-1.02-2.25-1.11-11.85-1.11-13.12 0-1.27 1.21-4.42 2.33-5.06 1.12-.65 11.14 3.07 13.27 4.3 2.13 1.23.91 6.84 2.13 8.05 1.22 1.22 2.92 3.54 3.55 3.9.63.36.71 1.72 1.06 1.72.35 0 .3-2.53.3-3.24 0-.71-1.43-1.99-2.63-2.68-1.2-.69-1.4-6.94-.96-7.19.44-.25 1.49 0 2.89.81 1.39.8 4.71 2.28 6.89 2.28 2.18 0 1.32-1.32 0-1.32s-6.26-3.12-6.99-3.55c-.73-.42-3.44-2.53-5.25-2.28s-7.72-4.46-10-4.91c-2.28-.46-3.04-3.14-3.04-4 0-.86-5.04-4.41-5.32-5.32-.28-.91.28-9.85.71-10.28.43-.43-.35-2.13 1.57-5.32.92-1.52 2.62-3.14 4.15-4.41 17.9-4.86 31.11-21.25 31.11-40.67 0-21.96-16.89-40.04-38.36-41.96v-35.35l38.36-22.79-.01.04Zm-7.57 100.11c0 19.06-15.51 34.57-34.57 34.57-19.06 0-34.57-15.51-34.57-34.57 0-19.06 15.51-34.57 34.57-34.57 19.06 0 34.57 15.51 34.57 34.57Z" style="fill-rule:nonzero" transform="matrix(.85252 0 0 .84399 80.205 11.77)"/>
    </g>
  </g>
</svg>

<?xml version="1.0" encoding="UTF-8" standalone="no"?>
<!DOCTYPE svg PUBLIC "-//W3C//DTD SVG 1.1//EN" "http://www.w3.org/Graphics/SVG/1.1/DTD/svg11.dtd">
<svg width="100%" height="100%" viewBox="0 0 250 252" version="1.1" xmlns="http://www.w3.org/2000/svg" xmlns:xlink="http://www.w3.org/1999/xlink" xml:space="preserve" xmlns:serif="http://www.serif.com/" style="fill-rule:evenodd;clip-rule:evenodd;stroke-linejoin:round;stroke-miterlimit:2;">
    <g id="Artboard1" transform="matrix(1.17299,0,0,1.18485,-76.4199,-75.5391)">
        <rect x="65.15" y="63.754" width="212.525" height="212.525" style="fill:none;"/>
        <clipPath id="_clip1">
            <rect x="65.15" y="63.754" width="212.525" height="212.525"/>
        </clipPath>
        <g clip-path="url(#_clip1)">
            <g transform="matrix(1,0,0,1,66.1729,0)">
                <g transform="matrix(0.852521,0,0,0.84399,14.0323,11.7694)">
                    <path d="M82.07,191.78L90.25,197.16C93.53,192.83 96.22,190.61 99.23,190.75C102.89,190.75 108.84,197.04 115.75,197.04C122.66,197.04 127.44,191.89 131.89,183.36L123.82,177.98C120.31,183.13 117.62,184.53 114.82,184.53C110.14,184.53 103.71,178.34 97.28,178.34C91.31,178.34 86.4,182.43 82.08,191.79L82.07,191.78Z" style="fill-rule:nonzero;"/>
                </g>
                <g transform="matrix(0.852521,0,0,0.84399,14.0323,11.7694)">
                    <path d="M149.12,88.23L149.12,79.42L135.67,87.41L135.67,61.87L128.1,61.87L128.1,91.91L110.77,102.21L110.77,61.87L103.2,61.87L103.2,82.08L67.71,61.87L64.84,61.87L64.84,68.95L103.2,90.8L103.2,120.34L90.06,112.86L90.06,94L90.01,94L90.06,93.91L64.84,79.55L64.84,88.26L82.49,98.31L82.49,108.54L64.84,98.49L64.84,107.2L103.2,129.05L103.2,146.36C81.73,148.28 64.84,166.36 64.84,188.32C64.84,210.28 80.26,226.75 100.36,229.94C100.63,230.71 100.85,231.49 101.05,231.93C101.51,232.94 100.59,248.29 100.34,250.57C100.09,252.85 103.06,258.99 103.67,260.06C104.28,261.12 102.9,265.13 102.37,265.66C101.84,266.19 101.86,268.65 101.58,269.73C100.95,272.15 95.5,278.91 93.46,279.69C93.13,279.82 90.49,279.76 89.31,280.45C88.12,281.14 78.46,280.79 77.51,280.25C76.56,279.71 70.32,278.07 67.68,277.62C67.06,277.51 66.04,276.73 64.85,275.61L64.85,280.61C69,282.09 71.84,284.42 73.26,285.11C74.69,285.81 75.79,287.19 76.3,289.16C76.73,290.83 68.51,294.75 64.86,297.02L64.86,305.8C68.35,302.15 75.07,296.89 76,296.35C77.24,295.63 88.11,289.36 90.18,289.36C92.25,289.36 90.8,295.99 90.53,297.56C90.27,299.13 92.19,309.16 91.14,309.77C90.58,310.09 90.37,312.47 90.3,314.78L96.83,314.78C97.06,313.55 97.36,312.42 97.87,312.3C98.45,312.17 99.6,313.45 100.58,314.78L105.44,314.78C104.64,313.77 103.86,312.88 103.68,312.71C103.29,312.32 100.51,310.13 100.05,308.35C99.59,306.58 96.86,303.74 96.33,303.21C95.8,302.68 96.17,292.8 96.46,291.99C97.22,289.86 99.69,286.82 99.69,285.75C99.69,284.68 104.16,281.4 105.57,281.4C106.98,281.4 109.44,288.17 111.82,289.98C113.72,291.42 117.16,297.85 117.87,298.56C120.02,300.71 120.38,309.07 120.38,311.3C120.38,312.12 120.24,313.41 120.06,314.77L124.19,314.77C124.49,313.24 124.71,311.87 124.81,311.43C125.06,310.32 124.25,304.39 124.81,303.83C125.37,303.27 130.48,304.03 132.66,304.03C134.84,304.03 139.25,301.87 139.9,302.11C141.56,302.72 141.62,304.79 144.31,306.87C145.17,307.53 147,308.41 149.13,309.29L149.13,307.05C146.2,305.08 144.28,299.88 144.56,299.12C144.66,298.85 146.6,297.32 149.13,295.31L149.13,290.81C145.59,293.31 139.28,295.89 137.72,296.79C135.79,297.9 127.3,295.67 125.56,294.66C123.82,293.66 115.73,283.37 114.47,280.58C113.45,278.33 113.36,268.73 113.36,267.46C113.36,266.19 114.57,263.04 115.69,262.4C116.81,261.75 126.83,265.47 128.96,266.7C131.09,267.93 129.87,273.54 131.09,274.75C132.31,275.97 134.01,278.29 134.64,278.65C135.27,279.01 135.35,280.37 135.7,280.37C136.05,280.37 136,277.84 136,277.13C136,276.42 134.57,275.14 133.37,274.45C132.17,273.76 131.97,267.51 132.41,267.26C132.85,267.01 133.9,267.26 135.3,268.07C136.69,268.87 140.01,270.35 142.19,270.35C144.37,270.35 143.51,269.03 142.19,269.03C140.87,269.03 135.93,265.91 135.2,265.48C134.47,265.06 131.76,262.95 129.95,263.2C128.14,263.45 122.23,258.74 119.95,258.29C117.67,257.83 116.91,255.15 116.91,254.29C116.91,253.43 111.87,249.88 111.59,248.97C111.31,248.06 111.87,239.12 112.3,238.69C112.73,238.26 111.95,236.56 113.87,233.37C114.79,231.85 116.49,230.23 118.02,228.96C135.92,224.1 149.13,207.71 149.13,188.29C149.13,166.33 132.24,148.25 110.77,146.33L110.77,110.98L149.13,88.19L149.12,88.23ZM141.55,188.34C141.55,207.4 126.04,222.91 106.98,222.91C87.92,222.91 72.41,207.4 72.41,188.34C72.41,169.28 87.92,153.77 106.98,153.77C126.04,153.77 141.55,169.28 141.55,188.34Z" style="fill-rule:nonzero;"/>
                </g>
            </g>
        </g>
    </g>
</svg>
